X:1
T:Title
%%score { 1 | 2 }
L:1/8
M:2/4
K:Bb
V:1 treble nm="Grand Piano"
V:2 bass 
V:1
 z2 z[Q:1/4=94] [DF] | [DF][DF] [EG][DF] | [DF] [DB]2 [Fd] | cB AB | c3 F | [DF][DF] [EG][DF] | %6
 [DF] [DB]2 [Fd] | cc BA | [DB]3 [DF] | cc dd | e e2 c | dd cB | c3 [DF] | [DB][DFB] [Fc][Fc] | %14
[M:9/16] [Fd][Fd]-<[Fd][Ge]3/2 |[M:2/4] dc BA |[M:3/8] [DB]3 |[M:1/8] [DF] | %18
[M:2/4] [DFB][DFB] [DFB][B,FA] | G G2 G | cc ed |[M:3/8] c3 |[M:1/8] [B,DF] | %23
[M:2/4] [DFB][DFB] [Fc][Fc] |[M:9/16] [Fd][Fd]-<[Fd][Ge]3/2 |[M:2/4] dc BA |[M:3/8] [DB]3 |] %27
V:2
 z2 z [B,,B,] | [B,,B,][B,,B,] [B,,B,][B,,B,] | [B,,B,] [B,,F,]2 [B,,B,] | %3
 [F,A,E][F,B,D] [F,CE][F,B,D] | [F,A,E]3 [F,A,E] | [B,,B,][B,,B,] [B,,B,][B,,B,] | %6
 [B,,B,] [B,,F,]2 [B,,B,] | [E,G,E][E,G,E] [F,B,D][F,CE] | [B,,B,]3 [B,,B,] | %9
 [F,A,F][F,A,F] [F,B,F][F,B,F] | [F,CF] [F,CF]2 [F,A,F] | [B,F][B,F] [A,CF][K:bass][G,C=E] | %12
 [F,A,F]3 [B,,B,] | [B,,B,]B,, [F,A,][F,A,] |[M:9/16] [B,,B,][B,,B,]-<[B,,B,][E,B,]3/2 | %15
[M:2/4] [F,B,F][F,B,E] [F,B,D][F,CE] |[M:3/8] [B,,B,]3 |[M:1/8] [B,,B,] |[M:2/4] B,,B,, B,,D, | %19
 [E,B,E] [E,B,E]2 [E,B,E] | [F,A,F][F,A,F] [F,CF][F,B,F] |[M:3/8] [F,A,F]3 |[M:1/8] B,, | %23
[M:2/4] B,,B,, [F,A,][F,A,] |[M:9/16] [B,,B,][B,,B,]-<[B,,B,][E,B,]3/2 | %25
[M:2/4] [F,B,F][F,B,E] [F,B,D][F,CE] |[M:3/8] [B,,B,]3 |] %27

